icons/plug-16.svg

<svg width="16" height="16" viewBox="0 0 16 16" xmlns="http://www.w3.org/2000/svg">
  <path fill-rule="evenodd" clip-rule="evenodd" d="M10.2763 3.08995C10.3238 3.03296 10.3942 3 10.4684 3H11.25C11.3881 3 11.5 3.11193 11.5 3.25V4.75V10.25V11.75C11.5 11.8881 11.3881 12 11.25 12H10.4684C10.3942 12 10.3238 11.967 10.2763 11.91L9.32617 10.7699C9.20442 10.6238 9.03173 10.5294 8.84303 10.5058L5.71899 10.1153C5.59388 10.0996 5.5 9.9933 5.5 9.86722V7.25V5.13278C5.5 5.0067 5.59388 4.90035 5.71899 4.88471L8.84303 4.49421C9.03173 4.47062 9.20442 4.37623 9.32617 4.23014L10.2763 3.08995ZM4 8V9.86722C4 10.7498 4.65719 11.4942 5.53294 11.6037L8.3633 11.9575L9.12399 12.8703C9.45648 13.2693 9.94901 13.5 10.4684 13.5H11.25C12.2165 13.5 13 12.7165 13 11.75V11H15.25C15.6642 11 16 10.6642 16 10.25C16 9.83579 15.6642 9.5 15.25 9.5H13V5.5H15.25C15.6642 5.5 16 5.16421 16 4.75C16 4.33579 15.6642 4 15.25 4H13V3.25C13 2.2835 12.2165 1.5 11.25 1.5H10.4684C9.94901 1.5 9.45648 1.73069 9.12399 2.12968L8.3633 3.0425L5.53294 3.3963C4.65719 3.50576 4 4.25022 4 5.13278V6.5H2.5C1.11929 6.5 0 7.61929 0 9V14.25C0 14.6642 0.335786 15 0.75 15C1.16421 15 1.5 14.6642 1.5 14.25V9C1.5 8.44772 1.94772 8 2.5 8H4Z"/>
</svg>

<svg xmlns="http://www.w3.org/2000/svg" width="16" height="16" viewBox="0 0 16 16"><path fill-rule="evenodd" d="M10.276 3.09a.25.25 0 01.192-.09h.782a.25.25 0 01.25.25v8.5a.25.25 0 01-.25.25h-.782a.25.25 0 01-.192-.09l-.95-1.14a.75.75 0 00-.483-.264l-3.124-.39a.25.25 0 01-.219-.249V5.133a.25.25 0 01.219-.248l3.124-.39a.75.75 0 00.483-.265l.95-1.14zM4 8v1.867a1.75 1.75 0 001.533 1.737l2.83.354.761.912c.332.4.825.63 1.344.63h.782A1.75 1.75 0 0013 11.75V11h2.25a.75.75 0 000-1.5H13v-4h2.25a.75.75 0 000-1.5H13v-.75a1.75 1.75 0 00-1.75-1.75h-.782c-.519 0-1.012.23-1.344.63l-.76.913-2.831.353A1.75 1.75 0 004 5.133V6.5H2.5A2.5 2.5 0 000 9v5.25a.75.75 0 001.5 0V9a1 1 0 011-1H4z"/></svg>
